X:1
T:O what a happy thing it is
T:John Alcock jr.
T:Text: William Whittingham, on Ps. 133.
T:Edition by Edmund Gooch released into the public domain, February 2013.
T:O what a happy thing it is
T:Psalm 133
C:John Alcock jr.
Z:Text: William Whittingham, on Ps. 133.
%%score [ 1 2 3 4 ]
L:1/8
M:3/2
K:Eb
V:1 treble nm="SOPRANO" snm="S."
V:2 treble nm="ALTO" snm="A."
V:3 treble-8 transpose=-12 nm="TENOR" snm="T."
V:4 bass nm="BASS" snm="B."
V:1
"^Brisk" B4 | (e4 B4) c4 | (c4 B4) e4 | (c3 d e4) Td4 | e8 B4 | (B3 c B3 c) d4 | (c6 d2) e4 | %7
w: And|as _ the|low- * er|ground _ _ doth|drink The|dew _ _ _ of|Her- * mon|
w: O|what _ a|hap- * py|thing _ _ it|is, And|joy- * * * ful|for _ to|
w: ’Tis|like _ the|pre- * cious|oint- * * ment|that Was|pour’d _ _ _ on|Aa- * ron’s|
 (e4 d4) B4- | B4 (AB c2) (B2 A2) | (A4 G4) B4 | (c4 B4) (cd e2) | (e4 d4) (e2 B2) | %12
w: hill, _ And|_ Si- * * on _|with _ his|sil- * ver _ _|drops _ The _|
w: see; _ Bre-|* thren _ _ to _|dwell _ to-|ge- * ther _ _|in _ Friend- *|
w: head, _ Which|_ from _ _ his _|beard _ down|to _ the _ _|skirts _ Of _|
 (A4 G4) (B2 G2) | (F4 E4) TD4 | !fermata!E8 |] %15
w: fields _ with _|fruit _ doth|fill;|
w: ship _ and _|u- * ni-|ty.|
w: his _ rich _|gar- * ments|spread.|
V:2
 E4 | E8 E4 | E8 G4 | E8 F4 | G8 G4 | (F3 G F3 E) D4 | G4 F8 | F8 F4 | E8 F4 | E8 E4 | E8 E4 | %11
w: And|as the|low- er|ground doth|drink The|dew _ _ _ of|Her- mon|hill, And|Si- on|with his|sil- ver|
w: O|what a|hap- py|thing it|is, And|joy- * * * ful|for to|see; Bre-|thren to|dwell to-|ge- ther|
w: ’Tis|like the|pre- cious|oint- ment|that Was|pour’d _ _ _ on|Aa- ron’s|head, Which|from his|beard down|to the|
 F8 E4 | (D4 E4) E4 | C4 B,8 | !fermata!B,8 |] %15
w: drops The|fields _ with|fruit doth|fill;|
w: in Friend-|ship _ and|u- ni-|ty.|
w: skirts Of|his _ rich|gar- ments|spread.|
V:3
 G4 | (G4 B4) E4 | E8 B4 | (c4 B4) A4 | B8 B4 | (d3 c d3 e) f4 | B8 T=A4 | B8 d4 | e8 B4 | B8 B4 | %10
w: And|as _ the|low- er|ground _ doth|drink The|dew _ _ _ of|Her- mon|hill, And|Si- on|with his|
w: O|what _ a|hap- py|thing _ it|is, And|joy- * * * ful|for to|see; Bre-|thren to|dwell to-|
w: ’Tis|like _ the|pre- cious|oint- * ment|that Was|pour’d _ _ _ on|Aa- ron’s|head, Which|from his|beard down|
 (e4 B4) T=A4 | B8 B4 | B8 B4 | (A4 G4) TF4 | !fermata!G8 |] %15
w: sil- * ver|drops The|fields with|fruit _ doth|fill;|
w: ge- * ther|in Friend-|ship and|u- * ni-|ty.|
w: to _ the|skirts Of|his rich|gar- * ments|spread.|
V:4
 E,4 | (E,4 G,4) A,4 | (A,4 G,4) E,4 | (A,4 G,4) F,4 | E,8 E,4 | (D,3 E, D,3 C,) B,,4 | E,4 F,8 | %7
w: And|as _ the|low- * er|ground _ doth|drink The|dew _ _ _ of|Her- mon|
w: O|what _ a|hap- * py|thing _ it|is, And|joy- * * * ful|for to|
w: ’Tis|like _ the|pre- * cious|oint- * ment|that Was|pour’d _ _ _ on|Aa- ron’s|
 B,,8 B,,4 | %8
w: hill, And|
w: see; Bre-|
w: head, Which|
"^Original clefs treble, alto, tenor, bass. Only the first verse of the text is given in the source: subsequent verses have beenadded editorially. Figuring of the vocal bass line given in the source has been omitted from this edition. The following notesare shown as small grace notes in the source: bar 3, beat 1, soprano D; bar 7, beat 1, soprano Eb; bar 10, beat 3, sopranoC and D; bar 11, beat 1, soprano Eb." C,8 D,4 | %9
w: Si- on|
w: thren to|
w: from his|
 E,8 G,4 | (A,4 G,4) C4 | B,8 G,4 | (F,4 E,4) G,,4 | A,,4 B,,8 | !fermata!E,8 |] %15
w: with his|sil- * ver|drops The|fields _ with|fruit doth|fill;|
w: dwell to-|ge- * ther|in Friend-|ship _ and|u- ni-|ty.|
w: beard down|to _ the|skirts Of|his _ rich|gar- ments|spread.|

